X:1
T:[ID 8-10a]
T:[ID 8-10a]
T:Bezeichnung standardisiert: Schwabisch Schwabisch
T:Urheber unbekannt Datum in der hier transkribierten schriftlichen Quelle: 1792
C:Urheber unbekannt
C:Datum in der hier transkribierten schriftlichen Quelle: 1792
L:1/8
M:3/8
K:D
V:1 treble 
V:1
 ddd | d2"^[weiss-korrektur loescht mittleres 16. aus Triole]" (3f/g/a/ | gec | d/c/d/e/d | ddd | %5
 d2"^[weiss-korrektur loescht mittleres 16. aus Triole]" (3f/g/a/ | gec | d3 :: A/B/c/d/e | %9
 d/e/f/g/a | A/B/c/d/e/c/ | d/c/d/e/d | A/B/c/d/e | d/e/f/g/a | A/B/c/d/e/c/ | d3 :| %16

